static/assets/images/networks/gnosis.svg

<svg width="256" height="256" viewBox="0 0 256 256" fill="none" xmlns="http://www.w3.org/2000/svg">
<path d="M128 256C198.692 256 256 198.692 256 128C256 57.3075 198.692 0 128 0C57.3075 0 0 57.3075 0 128C0 198.692 57.3075 256 128 256Z" fill="#04795C"/>
<path d="M92.2091 140.025C97.4057 140.025 102.207 138.295 106.072 135.297L74.3503 103.583C71.2481 107.535 69.5786 112.422 69.6147 117.446C69.5489 129.903 79.6786 140.029 92.2054 140.029L92.2091 140.025ZM186.579 117.373C186.579 112.176 184.848 107.382 181.847 103.517L150.126 135.228C154.079 138.327 158.966 139.995 163.988 139.96C176.449 140.025 186.579 129.899 186.579 117.376V117.373Z" fill="white"/>
<path d="M202.575 82.932L188.511 96.9886C193.346 102.731 195.991 110.001 195.977 117.508C195.977 135.162 181.65 149.486 163.988 149.486C156.19 149.486 149.057 146.69 143.458 142.024L128.066 157.412L112.67 142.024C106.924 146.858 99.6524 149.503 92.1432 149.489C74.482 149.489 60.1547 135.162 60.1547 117.508C60.1547 109.713 62.9543 102.584 67.6203 96.9886L53.5564 82.932C45.2957 96.5237 40.9376 112.128 40.9601 128.033C40.9601 176.135 79.9458 215.04 128 215.04C176.05 215.04 215.036 176.065 215.036 128.033C215.187 112.129 210.87 96.5024 202.575 82.932Z" fill="white"/>
<path d="M191.044 67.9423C182.927 59.4051 173.157 52.61 162.329 47.9712C151.501 43.3323 139.842 40.9468 128.062 40.9601C103.272 40.9601 80.9485 51.3533 65.0842 67.9423C62.9352 70.2256 60.8899 72.6043 58.9543 75.0712L128 144.091L197.042 75.0053C195.231 72.4976 193.225 70.136 191.044 67.9423ZM128.062 52.2865C148.461 52.2865 167.388 60.1473 181.584 74.471L128.062 127.967L74.5479 74.471C88.8093 60.1473 107.671 52.2865 128.066 52.2865H128.062Z" fill="white"/>
</svg>

<svg xmlns="http://www.w3.org/2000/svg" fill="none" viewBox="0 0 256 256"><path fill="#04795C" d="M128 256c70.692 0 128-57.308 128-128S198.692 0 128 0 0 57.308 0 128s57.308 128 128 128"/><path fill="#fff" d="M92.21 140.025c5.196 0 9.997-1.73 13.862-4.728L74.35 103.583a22.2 22.2 0 0 0-4.735 13.863c-.066 12.457 10.064 22.583 22.59 22.583zm94.369-22.652c0-5.197-1.731-9.991-4.732-13.856l-31.721 31.711a22.22 22.22 0 0 0 13.862 4.732c12.461.065 22.591-10.061 22.591-22.584z"/><path fill="#fff" d="m202.575 82.932-14.064 14.057a31.77 31.77 0 0 1 7.466 20.519c0 17.654-14.327 31.978-31.989 31.978-7.798 0-14.931-2.796-20.53-7.462l-15.392 15.388-15.396-15.388a31.8 31.8 0 0 1-20.527 7.465c-17.661 0-31.988-14.327-31.988-31.981 0-7.795 2.8-14.924 7.465-20.52L53.556 82.933a86.6 86.6 0 0 0-12.596 45.101c0 48.102 38.986 87.007 87.04 87.007 48.05 0 87.036-38.975 87.036-87.007a84.93 84.93 0 0 0-12.461-45.101"/><path fill="#fff" d="M191.044 67.942a86.77 86.77 0 0 0-62.982-26.982c-24.79 0-47.114 10.393-62.978 26.982a105 105 0 0 0-6.13 7.13L128 144.09l69.042-69.086a59 59 0 0 0-5.998-7.063m-62.982-15.655c20.399 0 39.326 7.86 53.522 22.184l-53.522 53.496L74.548 74.47c14.261-14.324 33.123-22.185 53.518-22.185z"/></svg>
